apps/trade/public/tokens/jup.svg

<svg width="24" height="25" viewBox="0 0 24 25" fill="none" xmlns="http://www.w3.org/2000/svg">
<g clip-path="url(#clip0_1870_25042)">
<path d="M2.24805 19.167C3.23127 20.5346 4.49248 21.6789 5.94896 22.525C7.40547 23.3709 9.02431 23.8995 10.6994 24.076C9.83762 22.7791 8.58489 21.586 7.02099 20.6777C5.45709 19.7693 3.8009 19.2731 2.24805 19.167Z" fill="url(#paint0_linear_1870_25042)"/>
<path d="M9.12119 17.061C6.10821 15.3105 2.8471 14.8644 0.513672 15.6525C0.738936 16.397 1.03602 17.1179 1.40074 17.8049C3.42808 17.758 5.6416 18.3086 7.70126 19.5049C9.76097 20.7012 11.3363 22.3522 12.3003 24.137C13.0782 24.1132 13.852 24.014 14.6109 23.8412C14.1391 21.4241 12.1335 18.8118 9.12119 17.061Z" fill="url(#paint1_linear_1870_25042)"/>
<path d="M23.4799 9.95484C23.0968 8.39666 22.4037 6.93167 21.4419 5.64731C20.48 4.36295 19.2693 3.28559 17.8819 2.47954C16.4944 1.67348 14.9588 1.15528 13.3667 0.95587C11.7746 0.756456 10.1586 0.879921 8.61523 1.3189C11.1936 1.63443 14.0555 2.60235 16.8622 4.23291C19.669 5.86346 21.9294 7.8699 23.4799 9.95484Z" fill="url(#paint2_linear_1870_25042)"/>
<path d="M19.7289 15.67C18.4091 13.4782 16.1483 11.3794 13.3632 9.76153C10.5782 8.14357 7.63579 7.21943 5.0803 7.15829C2.83208 7.10504 1.14472 7.7586 0.452112 8.95099C0.448168 8.95804 0.442646 8.96474 0.438307 8.97186C0.375988 9.1955 0.322346 9.4195 0.273438 9.64437C1.24057 9.26255 2.36113 9.04997 3.60712 9.02626C6.37796 8.97426 9.47891 9.86052 12.3405 11.523C15.202 13.1855 17.5098 15.4412 18.8367 17.8732C19.4315 18.969 19.8026 20.0477 19.9497 21.0783C20.1209 20.9253 20.2889 20.7671 20.4519 20.6027C20.4562 20.5952 20.459 20.5873 20.4633 20.5794C21.1559 19.3859 20.8881 17.5967 19.7289 15.67Z" fill="url(#paint3_linear_1870_25042)"/>
<path d="M11.2443 13.4077C6.97936 10.93 2.26637 10.5418 0 12.271C0.0044516 12.8122 0.0458303 13.3525 0.123849 13.8881C0.790539 13.686 1.47765 13.5588 2.17249 13.5087C4.7051 13.3182 7.49724 14.0239 10.0311 15.4966C12.5648 16.9694 14.5622 19.0465 15.6516 21.3392C15.9527 21.9673 16.1824 22.6273 16.3363 23.3066C16.8404 23.109 17.3305 22.8775 17.8032 22.6136C18.1826 19.7879 15.5104 15.8859 11.2443 13.4077Z" fill="url(#paint4_linear_1870_25042)"/>
<path d="M21.9232 12.0005C20.5886 9.81108 18.308 7.70642 15.5032 6.07784C12.6984 4.44925 9.74456 3.51052 7.18083 3.43518C5.22645 3.37878 3.71264 3.85248 2.92773 4.74744C6.18687 4.19524 10.4857 5.12333 14.6524 7.54392C18.8192 9.96453 21.756 13.2398 22.8896 16.3443C23.2782 15.2198 22.9401 13.6701 21.9232 12.0005Z" fill="url(#paint5_linear_1870_25042)"/>
</g>
<defs>
<linearGradient id="paint0_linear_1870_25042" x1="15.6366" y1="5.59128" x2="4.84872" y2="24.1367" gradientUnits="userSpaceOnUse">
<stop offset="0.0001" stop-color="#C7F284"/>
<stop offset="1" stop-color="#00BEF0"/>
</linearGradient>
<linearGradient id="paint1_linear_1870_25042" x1="15.6354" y1="5.59156" x2="4.84749" y2="24.137" gradientUnits="userSpaceOnUse">
<stop offset="0.0001" stop-color="#C7F284"/>
<stop offset="1" stop-color="#00BEF0"/>
</linearGradient>
<linearGradient id="paint2_linear_1870_25042" x1="15.6361" y1="5.59055" x2="4.84823" y2="24.136" gradientUnits="userSpaceOnUse">
<stop offset="0.0001" stop-color="#C7F284"/>
<stop offset="1" stop-color="#00BEF0"/>
</linearGradient>
<linearGradient id="paint3_linear_1870_25042" x1="15.6364" y1="5.59121" x2="4.84857" y2="24.1367" gradientUnits="userSpaceOnUse">
<stop offset="0.0001" stop-color="#C7F284"/>
<stop offset="1" stop-color="#00BEF0"/>
</linearGradient>
<linearGradient id="paint4_linear_1870_25042" x1="15.6364" y1="5.59062" x2="4.84849" y2="24.1361" gradientUnits="userSpaceOnUse">
<stop offset="0.0001" stop-color="#C7F284"/>
<stop offset="1" stop-color="#00BEF0"/>
</linearGradient>
<linearGradient id="paint5_linear_1870_25042" x1="15.6371" y1="5.59028" x2="4.84926" y2="24.1357" gradientUnits="userSpaceOnUse">
<stop offset="0.0001" stop-color="#C7F284"/>
<stop offset="1" stop-color="#00BEF0"/>
</linearGradient>
<clipPath id="clip0_1870_25042">
<rect width="24" height="24" fill="white" transform="translate(0 0.5)"/>
</clipPath>
</defs>
</svg>

<svg width="24" height="25" fill="none" xmlns="http://www.w3.org/2000/svg">
    <g clip-path="url(#a)">
        <path d="M2.248 19.167a11.953 11.953 0 0 0 8.451 4.909c-.861-1.297-2.114-2.49-3.678-3.398-1.564-.909-3.22-1.405-4.773-1.511Z" fill="url(#b)"/>
        <path d="M9.121 17.061c-3.013-1.75-6.274-2.197-8.607-1.409.225.745.522 1.466.887 2.153 2.027-.047 4.24.504 6.3 1.7 2.06 1.196 3.635 2.847 4.6 4.632a12.07 12.07 0 0 0 2.31-.296c-.472-2.417-2.478-5.03-5.49-6.78Z" fill="url(#c)"/>
        <path d="M23.48 9.955A11.943 11.943 0 0 0 8.615 1.319c2.579.315 5.44 1.283 8.247 2.914 2.807 1.63 5.067 3.637 6.618 5.722Z" fill="url(#d)"/>
        <path d="M19.729 15.67c-1.32-2.192-3.58-4.29-6.366-5.908-2.785-1.618-5.727-2.543-8.283-2.604-2.248-.053-3.935.6-4.628 1.793l-.014.02c-.062.224-.116.448-.165.673.968-.381 2.088-.594 3.334-.618 2.771-.052 5.872.835 8.733 2.497 2.862 1.662 5.17 3.918 6.497 6.35.595 1.096.966 2.175 1.113 3.205.17-.153.339-.31.502-.475l.011-.024c.693-1.193.425-2.982-.734-4.909Z" fill="url(#e)"/>
        <path d="M11.244 13.408C6.98 10.93 2.266 10.542 0 12.27c.004.541.046 1.081.124 1.617a9.39 9.39 0 0 1 2.048-.38c2.533-.19 5.325.516 7.86 1.989 2.533 1.472 4.53 3.55 5.62 5.842a9.31 9.31 0 0 1 .684 1.968c.504-.198.995-.43 1.467-.693.38-2.826-2.293-6.728-6.559-9.206Z" fill="url(#f)"/>
        <path d="M21.923 12c-1.334-2.189-3.615-4.294-6.42-5.922-2.805-1.629-5.758-2.567-8.322-2.643-1.955-.056-3.468.417-4.253 1.312 3.259-.552 7.558.376 11.724 2.797 4.167 2.42 7.104 5.696 8.238 8.8.388-1.124.05-2.674-.967-4.344Z" fill="url(#g)"/>
    </g>
    <defs>
        <linearGradient id="b" x1="15.637" y1="5.591" x2="4.849" y2="24.137" gradientUnits="userSpaceOnUse">
            <stop offset="0" stop-color="#C7F284"/>
            <stop offset="1" stop-color="#00BEF0"/>
        </linearGradient>
        <linearGradient id="c" x1="15.635" y1="5.592" x2="4.847" y2="24.137" gradientUnits="userSpaceOnUse">
            <stop offset="0" stop-color="#C7F284"/>
            <stop offset="1" stop-color="#00BEF0"/>
        </linearGradient>
        <linearGradient id="d" x1="15.636" y1="5.591" x2="4.848" y2="24.136" gradientUnits="userSpaceOnUse">
            <stop offset="0" stop-color="#C7F284"/>
            <stop offset="1" stop-color="#00BEF0"/>
        </linearGradient>
        <linearGradient id="e" x1="15.636" y1="5.591" x2="4.849" y2="24.137" gradientUnits="userSpaceOnUse">
            <stop offset="0" stop-color="#C7F284"/>
            <stop offset="1" stop-color="#00BEF0"/>
        </linearGradient>
        <linearGradient id="f" x1="15.636" y1="5.591" x2="4.848" y2="24.136" gradientUnits="userSpaceOnUse">
            <stop offset="0" stop-color="#C7F284"/>
            <stop offset="1" stop-color="#00BEF0"/>
        </linearGradient>
        <linearGradient id="g" x1="15.637" y1="5.59" x2="4.849" y2="24.136" gradientUnits="userSpaceOnUse">
            <stop offset="0" stop-color="#C7F284"/>
            <stop offset="1" stop-color="#00BEF0"/>
        </linearGradient>
        <clipPath id="a">
            <path fill="#fff" d="M0 .5h24v24H0z"/>
        </clipPath>
    </defs>
</svg>
